X: 14746
T: Gan Ainm
R: polka
M: 2/4
K: Gmajor
|:ge dB|ge dB|ge (3d/e/d/ B|A2 A>f|
ge dB|ge dG|Bd AB/A/|G2 G2:|
|:E>D E/F/G|A2 AG/A/|BA (3G/A/G/ F|E2 ED|
E>D E/F/G|A2 AG/A/|Bd AB/A/|G2 G2:|

